!!!OTL: Die wiedergefundene Schwester (Suedeli - Ballade) Herr Conrad war ein mueder Mann,
!!!ARE: Europa, Mitteleuropa, Deutschland
!!!YOR: 4, S. 37
!!    ????
!!!SCT: Q0072S
!!!YEM: Copyright 1995, estate of Helmut Schaffrath.
**kern
*ICvox
*Ivox
*M4/4
*k[f#c#g#d#]
*E:
{8e
8g#
=1
4b
8g#
8b
4ee
8b
8g#
=2
8b
8a
8f#
8d#
4e
8r}
{8e
=3
4cc#
4b
4dd#
4ee
=4
4dd#
4cc#
4b
8r}
{8b
=5
4dd#
8cc#
8dd#
4ee
8dd#
8cc#
=6
8b
8cc#
8b
8a
4g#}
{4e
=7
4cc#
4b
4a
4g#
=8
8f#
8e
8f#
8g#
4e}
==
!!!AGN: Ballade, Entfuehrung, Adelige als Dienstmagd, Rueckkehr
!! Nach Methfessels (komponierter) Melodie zu "Vier Worte nenn ich
!!    euch ..." . Zweistimmig notiert, Oberstimme kodiert.
!!!ONB: ESAC (Essen Associative Code) Database: BALLADE
!!!AMT: simple quadruple
!!!AIN: vox
!!!EED: Helmut Schaffrath
!!!EEV: 1.0
*-
